<?xml version="1.0" encoding="UTF-8"?>
<map version="1.10" tiledversion="1.11.2" orientation="orthogonal" renderorder="right-down" width="60" height="30" tilewidth="16" tileheight="16" infinite="0" nextlayerid="3" nextobjectid="1">
 <tileset firstgid="1" name="plains" tilewidth="16" tileheight="16" tilecount="72" columns="6">
  <image source="plains.png" width="96" height="192"/>
  <wangsets>
   <wangset name="Ground" type="corner" tile="-1">
    <wangcolor name="Dirt" color="#ff0000" tile="-1" probability="1"/>
    <wangcolor name="Grass" color="#00ff00" tile="-1" probability="1"/>
    <wangtile tileid="1" wangid="0,2,0,1,0,2,0,2"/>
    <wangtile tileid="2" wangid="0,2,0,1,0,1,0,2"/>
    <wangtile tileid="3" wangid="0,2,0,2,0,1,0,2"/>
    <wangtile tileid="4" wangid="0,1,0,2,0,1,0,1"/>
    <wangtile tileid="5" wangid="0,1,0,1,0,2,0,1"/>
    <wangtile tileid="7" wangid="0,1,0,1,0,2,0,2"/>
    <wangtile tileid="8" wangid="0,1,0,1,0,1,0,1"/>
    <wangtile tileid="9" wangid="0,2,0,2,0,1,0,1"/>
    <wangtile tileid="10" wangid="0,2,0,1,0,1,0,1"/>
    <wangtile tileid="11" wangid="0,1,0,1,0,1,0,2"/>
    <wangtile tileid="13" wangid="0,1,0,2,0,2,0,2"/>
    <wangtile tileid="14" wangid="0,1,0,2,0,2,0,1"/>
    <wangtile tileid="15" wangid="0,2,0,2,0,2,0,1"/>
    <wangtile tileid="16" wangid="0,1,0,2,0,1,0,2"/>
    <wangtile tileid="17" wangid="0,2,0,1,0,2,0,1"/>
    <wangtile tileid="22" wangid="0,2,0,2,0,2,0,2"/>
   </wangset>
  </wangsets>
 </tileset>
 <tileset firstgid="73" name="fences" tilewidth="16" tileheight="16" tilecount="16" columns="4">
  <image source="fences.png" width="64" height="64"/>
  <wangsets>
   <wangset name="fences" type="edge" tile="-1">
    <wangcolor name="fence" color="#ff0000" tile="-1" probability="1"/>
    <wangtile tileid="0" wangid="0,0,0,0,1,0,0,0"/>
    <wangtile tileid="1" wangid="0,0,1,0,1,0,0,0"/>
    <wangtile tileid="2" wangid="0,0,1,0,1,0,1,0"/>
    <wangtile tileid="3" wangid="0,0,0,0,1,0,1,0"/>
    <wangtile tileid="4" wangid="1,0,0,0,1,0,0,0"/>
    <wangtile tileid="5" wangid="1,0,1,0,1,0,0,0"/>
    <wangtile tileid="6" wangid="1,0,1,0,1,0,1,0"/>
    <wangtile tileid="7" wangid="1,0,0,0,1,0,1,0"/>
    <wangtile tileid="8" wangid="1,0,0,0,0,0,0,0"/>
    <wangtile tileid="9" wangid="1,0,1,0,0,0,0,0"/>
    <wangtile tileid="10" wangid="1,0,1,0,0,0,1,0"/>
    <wangtile tileid="11" wangid="1,0,0,0,0,0,1,0"/>
    <wangtile tileid="13" wangid="0,0,1,0,0,0,0,0"/>
    <wangtile tileid="14" wangid="0,0,1,0,0,0,1,0"/>
    <wangtile tileid="15" wangid="0,0,0,0,0,0,1,0"/>
   </wangset>
  </wangsets>
 </tileset>
 <layer id="1" name="Tile Layer 1" width="60" height="30">
  <data encoding="csv">
23,23,23,23,23,14,6,9,11,4,23,23,23,23,23,23,23,23,23,23,8,10,23,23,23,23,14,6,10,23,23,23,23,23,23,23,2,3,12,5,23,23,23,8,5,16,23,23,23,23,23,23,23,23,23,23,23,23,23,23,
23,23,23,23,23,23,14,6,9,11,4,23,23,23,23,23,23,23,23,23,8,10,23,23,23,23,23,8,10,23,23,23,23,23,23,2,12,5,15,16,23,23,23,8,11,4,23,23,23,23,23,23,23,23,23,23,23,23,23,23,
23,23,23,23,23,23,23,14,6,9,11,4,23,23,23,23,23,23,23,2,12,10,23,23,23,23,23,8,10,23,23,23,23,23,2,12,5,16,23,23,23,23,23,14,6,10,23,23,23,23,23,23,23,23,23,23,23,23,23,23,
23,23,23,23,23,23,23,23,14,6,9,10,23,23,23,23,23,2,3,12,5,16,23,23,23,23,23,8,11,4,23,23,23,2,12,5,16,23,23,23,23,23,23,23,8,11,4,23,23,23,23,23,23,23,23,23,23,23,23,2,
23,23,23,23,23,23,23,23,23,8,9,10,23,23,23,2,3,12,5,6,10,23,23,23,23,23,23,14,6,11,4,23,2,12,5,16,23,23,23,23,23,23,23,23,14,6,11,4,23,23,23,23,23,23,23,23,23,23,2,12,
23,23,23,23,23,23,23,23,23,14,6,11,4,23,2,12,5,15,16,8,10,23,23,23,23,23,23,23,14,6,11,3,12,5,16,23,23,23,23,23,23,23,23,23,23,14,6,10,23,23,23,23,23,23,23,23,23,23,8,5,
23,23,23,23,23,23,23,23,23,23,8,9,11,3,12,5,16,23,23,8,10,23,23,23,23,23,23,23,23,14,6,9,5,16,23,23,23,23,23,23,23,23,23,23,23,23,8,10,23,23,23,23,23,23,23,23,23,2,12,10,
23,23,23,23,23,23,23,23,23,23,8,9,9,5,15,16,23,23,23,8,10,23,23,23,23,23,23,23,2,3,12,5,16,23,23,23,23,23,23,23,23,23,23,23,23,23,8,10,23,23,23,23,23,23,23,2,3,12,5,16,
23,23,23,23,23,23,23,23,23,23,8,9,5,16,23,23,23,23,2,12,10,23,23,23,23,23,23,2,12,5,15,16,23,23,23,23,23,23,23,23,23,23,23,23,23,23,8,10,23,23,23,23,2,3,3,12,5,15,16,23,
23,23,23,23,23,23,23,23,23,23,8,9,10,23,23,23,23,23,8,5,16,23,23,23,23,23,2,12,5,16,23,23,23,23,23,23,23,23,23,23,23,23,23,23,23,2,12,11,3,3,3,3,12,5,15,15,16,23,23,23,
23,23,23,23,23,23,23,23,23,23,8,9,10,23,23,23,23,23,8,10,23,23,23,23,2,3,12,5,16,23,23,23,23,23,23,23,23,23,23,23,23,23,2,3,3,12,9,5,15,15,15,15,15,16,23,23,23,23,23,23,
2,3,4,23,23,23,23,23,23,23,8,9,10,23,23,23,23,23,8,10,2,3,3,3,12,5,15,16,23,23,23,23,23,23,23,23,23,23,23,23,23,2,12,5,15,15,6,11,4,23,23,23,23,23,23,23,23,23,23,23,
8,9,11,3,3,4,23,23,23,23,8,9,11,4,23,23,23,2,12,11,12,5,15,15,15,16,23,23,23,23,23,23,23,23,23,23,23,23,2,3,3,12,5,16,23,23,14,6,10,23,23,23,23,23,23,23,23,23,23,23,
12,9,9,9,9,11,3,3,3,3,12,9,9,11,3,3,3,12,5,15,15,16,23,23,23,23,23,23,23,23,23,23,23,23,23,23,2,3,12,9,5,15,16,23,23,23,23,8,11,4,23,23,23,23,23,23,23,23,23,2,
15,15,15,15,15,15,6,9,9,9,9,9,9,9,9,9,9,9,10,23,23,23,23,23,23,23,23,23,23,23,23,23,23,23,2,3,12,9,9,5,16,23,23,23,23,23,23,14,6,11,4,23,23,23,23,23,23,23,23,8,
23,23,23,23,23,23,14,15,6,9,9,9,9,9,9,9,9,5,16,23,23,23,23,23,23,23,23,23,23,23,23,23,2,3,12,5,15,15,6,10,23,23,23,23,23,23,23,23,14,6,10,23,23,23,23,23,23,23,23,8,
23,23,23,23,23,23,23,23,14,6,9,9,9,9,9,9,9,11,3,3,3,3,3,3,3,4,23,23,23,23,2,3,12,5,15,16,23,2,12,10,23,23,23,23,23,23,23,23,23,8,11,4,23,23,23,23,23,23,2,12,
23,23,23,23,23,23,23,23,23,14,6,9,9,5,15,6,9,5,6,9,9,9,9,9,9,11,4,2,3,3,12,5,15,16,23,23,23,8,5,16,23,23,23,23,23,23,23,23,23,8,9,10,23,23,23,23,23,23,8,5,
23,23,23,23,23,23,23,23,2,3,12,5,15,16,23,8,9,10,14,15,15,15,6,9,9,9,11,12,5,15,15,16,23,23,23,23,23,8,10,23,23,23,23,23,23,23,23,23,23,8,5,16,23,23,23,23,2,3,12,10,
23,23,23,23,23,23,2,3,12,5,15,16,23,23,23,8,9,10,23,23,23,23,14,15,15,6,9,9,10,23,23,23,23,23,23,23,2,12,11,3,3,3,3,3,3,3,3,3,3,12,11,3,3,3,3,3,12,5,15,16,
23,23,23,23,2,3,12,5,15,16,23,23,23,23,23,8,9,10,23,23,23,23,23,23,23,14,6,9,11,4,23,23,23,23,23,23,8,5,15,15,15,15,15,15,15,15,15,15,15,15,6,9,5,15,15,15,15,16,23,23,
23,23,23,2,12,5,15,16,23,23,23,23,23,23,23,8,9,10,23,23,23,23,23,23,23,23,14,6,9,11,4,23,23,23,23,23,8,10,23,23,23,23,23,23,23,23,23,23,23,23,14,6,10,23,23,23,23,23,23,23,
23,2,3,12,5,16,23,23,23,23,23,23,23,23,23,8,9,10,23,23,23,23,23,23,23,23,23,14,6,9,11,4,23,23,23,23,8,10,23,23,23,23,23,23,23,23,23,23,23,23,23,8,11,4,23,23,23,23,23,23,
2,12,5,15,16,23,23,23,23,23,23,23,23,23,23,8,9,10,23,23,23,23,23,23,23,23,23,23,14,6,9,11,4,23,23,23,8,11,4,23,23,23,23,23,23,23,23,23,23,23,23,14,6,11,4,23,23,23,23,23,
8,5,16,23,23,23,23,23,23,23,23,23,23,23,23,8,9,11,4,23,23,23,23,23,23,23,23,23,23,14,6,9,11,4,23,23,8,9,11,3,3,4,23,23,23,23,23,23,23,23,23,23,14,6,10,23,23,23,23,23,
12,10,23,23,23,23,23,23,23,23,23,23,23,23,23,14,15,6,10,23,23,23,23,23,23,23,23,23,23,23,8,9,9,10,2,3,12,9,5,15,6,11,3,3,3,3,4,23,23,23,23,23,23,8,11,4,23,23,23,23,
5,16,23,23,23,23,23,23,23,23,23,23,23,23,23,23,23,8,11,4,23,23,23,23,23,23,23,23,23,23,8,9,9,11,12,5,15,15,16,23,14,15,15,15,15,6,11,3,4,23,23,23,23,14,6,11,4,23,23,23,
10,23,23,23,23,23,23,23,23,23,23,23,23,23,23,23,23,14,6,11,4,23,23,23,23,23,23,23,23,23,14,6,9,9,5,16,23,23,23,23,23,23,23,23,23,14,15,6,11,3,3,3,4,23,14,6,11,4,23,23,
10,23,23,23,23,23,23,23,23,23,23,23,23,23,23,23,23,23,14,6,11,4,23,23,23,23,23,23,23,23,23,14,6,9,11,4,23,23,23,23,23,23,23,23,23,23,23,14,15,15,15,6,11,4,23,14,6,11,4,23,
16,23,23,23,23,23,23,23,23,23,23,23,23,23,23,23,23,23,23,8,9,10,23,23,23,23,23,23,23,23,23,23,14,6,9,10,23,23,23,23,23,23,23,23,23,23,23,23,23,23,23,14,6,10,23,23,14,6,11,4
</data>
 </layer>
 <layer id="2" name="Fences" width="60" height="30">
  <data encoding="csv">
0,0,0,0,82,76,0,0,0,0,0,0,0,0,0,0,0,0,0,0,0,0,74,84,0,0,0,0,0,0,0,0,0,0,0,0,0,0,0,0,0,0,0,0,0,0,0,0,0,0,0,0,0,0,0,0,0,0,0,0,
0,0,0,0,0,82,76,0,0,0,0,0,0,0,0,0,0,0,0,0,0,0,77,0,0,0,0,0,0,0,0,0,0,0,0,0,0,0,0,0,0,0,0,0,0,0,0,0,0,0,0,0,0,0,0,0,0,0,0,0,
0,0,0,0,0,0,77,0,0,0,0,0,0,0,0,0,0,0,0,0,0,0,77,0,0,0,0,0,0,0,0,0,0,0,0,0,0,0,0,0,0,0,0,0,0,0,0,0,0,0,0,0,0,0,0,0,0,0,0,0,
0,0,0,0,0,0,82,76,0,0,0,0,0,0,0,0,0,0,0,0,0,74,84,0,0,0,0,0,0,0,0,0,0,0,0,0,0,0,0,0,0,0,0,0,0,0,0,0,0,0,0,0,0,0,0,0,0,0,0,0,
0,0,0,0,0,0,0,77,0,0,0,0,0,0,0,0,0,0,0,0,0,77,0,0,0,0,0,0,0,0,0,0,0,0,0,0,0,0,0,0,0,0,0,0,0,0,0,0,0,0,0,0,0,0,0,0,0,0,0,0,
0,0,0,0,0,0,0,82,76,0,0,0,0,0,0,0,0,0,0,0,0,77,0,0,0,0,0,0,0,0,0,0,0,0,0,0,0,0,0,0,0,0,0,0,0,0,0,0,0,0,0,0,0,0,0,0,0,0,0,0,
0,0,0,0,0,0,0,0,77,0,0,0,0,0,0,0,0,0,0,0,0,77,0,0,0,0,0,0,0,0,0,0,0,0,0,0,0,0,0,0,0,0,0,0,0,0,0,0,0,0,0,0,0,0,0,0,0,0,0,0,
0,0,0,0,0,0,0,0,82,76,0,0,0,0,0,74,87,76,0,0,0,77,0,0,0,0,0,0,0,0,0,0,0,0,0,0,0,0,0,0,0,0,0,0,0,0,0,0,0,0,0,0,0,0,0,0,0,0,0,0,
0,0,0,0,0,0,0,0,0,77,0,0,0,0,0,77,0,77,0,0,0,77,0,0,0,0,0,0,0,0,0,0,0,0,0,0,0,0,0,74,0,0,0,0,0,0,0,0,0,0,0,0,0,0,0,0,0,0,0,0,
87,87,87,87,87,76,0,0,0,77,0,0,0,0,74,84,0,77,0,0,74,84,0,0,0,0,0,0,0,0,0,0,0,0,0,0,0,0,74,84,0,0,0,0,0,0,0,0,0,0,0,0,0,0,0,0,0,0,0,0,
0,0,0,0,0,82,87,87,76,77,0,0,0,0,77,0,74,84,0,0,82,88,0,0,0,0,0,0,0,0,0,0,0,0,0,0,74,87,84,0,0,0,0,0,0,0,0,0,0,0,0,0,0,0,0,0,0,0,0,0,
0,0,0,0,0,0,0,0,82,80,0,0,0,0,77,0,77,0,0,0,0,0,0,0,0,0,74,87,88,0,0,0,0,0,74,87,84,0,0,0,0,0,0,0,0,0,0,0,0,0,0,0,0,0,0,0,0,0,0,0,
0,0,0,0,0,0,0,0,0,81,0,0,0,0,82,87,84,0,0,0,0,0,0,0,74,87,84,0,0,0,0,0,74,87,84,0,0,0,0,0,0,0,0,0,0,0,0,0,0,0,0,0,0,0,0,0,0,0,0,0,
0,0,0,0,0,0,0,0,0,0,0,0,0,0,0,0,0,0,0,0,0,0,0,74,84,0,0,0,0,0,0,74,84,0,0,0,0,0,0,0,0,0,0,0,0,0,0,0,0,0,0,0,0,0,0,0,0,0,0,0,
76,0,0,0,0,0,0,0,0,0,0,0,0,0,0,0,0,0,0,0,0,74,87,84,0,0,0,0,0,74,87,84,0,0,0,0,0,0,0,0,0,0,0,0,0,0,0,0,0,0,0,0,0,0,0,0,0,0,0,0,
82,87,87,76,0,0,0,0,0,0,0,0,0,0,0,0,0,0,0,86,87,83,87,87,87,87,87,87,87,84,0,0,0,0,0,0,0,0,0,0,0,0,0,0,0,0,0,0,0,0,0,0,0,0,0,0,0,0,0,0,
0,0,0,82,87,76,0,0,0,0,0,0,0,0,0,0,0,0,0,0,0,0,0,0,0,0,0,0,0,0,0,0,0,0,0,0,0,0,0,0,0,0,0,0,0,0,0,0,0,0,0,0,0,0,0,0,0,0,0,0,
0,0,0,0,0,82,76,0,0,0,0,0,0,0,0,0,0,0,0,0,0,0,0,0,0,0,0,0,0,0,0,0,0,0,0,0,0,0,0,0,0,0,0,0,0,0,0,0,0,0,0,0,0,0,0,0,0,0,0,0,
0,0,0,0,0,74,84,0,0,0,0,0,0,0,0,0,0,0,0,0,0,0,0,0,0,0,0,0,0,0,0,0,0,0,0,0,0,0,0,0,0,0,0,0,0,0,0,0,0,0,0,0,0,0,0,0,0,0,0,0,
0,0,0,0,74,84,0,0,0,0,0,0,74,76,0,0,0,0,74,87,87,76,0,0,0,0,0,0,0,0,0,0,0,0,0,0,0,0,0,0,0,0,0,0,0,0,0,0,0,0,0,0,0,0,0,0,0,0,0,0,
0,0,74,87,84,0,0,0,0,74,87,87,84,77,0,0,0,0,77,0,0,82,87,76,0,0,0,0,0,0,0,0,0,0,0,0,0,0,0,0,0,0,0,0,0,0,0,0,0,0,0,0,0,0,0,0,0,0,0,0,
74,87,84,0,0,0,0,74,87,84,0,0,0,77,0,0,0,0,77,0,0,0,0,77,0,0,0,0,0,0,0,0,0,0,0,0,0,0,0,0,0,0,0,0,0,0,0,0,0,0,0,0,0,0,0,0,0,0,0,0,
81,0,0,0,0,0,74,84,0,0,0,0,0,77,0,0,0,0,77,0,0,0,0,82,76,0,0,0,0,0,0,0,0,0,0,0,0,0,0,0,0,0,0,0,0,0,0,0,0,0,0,0,0,0,0,0,0,0,0,0,
0,0,0,0,74,87,84,0,0,0,0,0,0,77,0,0,0,0,77,0,0,0,0,0,77,0,0,0,0,0,0,0,0,0,0,0,0,0,0,0,0,0,0,0,0,0,0,0,0,0,0,0,0,0,0,0,0,0,0,0,
0,0,86,87,84,0,0,0,0,0,0,0,0,77,0,0,0,0,77,0,0,0,0,0,82,76,0,0,0,0,0,0,0,0,0,0,0,0,0,0,0,0,0,0,0,0,0,0,0,0,0,0,0,0,0,0,0,0,0,0,
0,0,0,0,0,0,0,0,0,0,0,0,0,0,0,0,0,0,0,0,0,0,0,0,0,0,0,0,0,0,0,0,0,0,0,0,0,0,0,0,0,0,0,0,0,0,0,0,0,0,0,0,0,0,0,0,0,0,0,0,
0,0,0,0,0,0,0,0,0,0,0,0,0,0,0,0,0,0,0,0,0,0,0,0,0,0,0,0,0,0,0,0,0,0,0,0,0,0,0,0,0,0,0,0,0,0,0,0,0,0,0,0,0,0,0,0,0,0,0,0,
0,0,0,0,0,0,0,0,0,0,0,0,0,0,0,0,0,0,0,0,0,0,0,0,0,0,0,0,0,0,0,0,0,0,0,0,0,0,0,0,0,0,0,0,0,0,0,0,0,0,0,0,0,0,0,0,0,0,0,0,
0,0,0,0,0,0,0,0,0,0,0,0,0,0,0,0,0,0,0,0,0,0,0,0,0,0,0,0,0,0,0,0,0,0,0,0,0,0,0,0,0,0,0,0,0,0,0,0,0,0,0,0,0,0,0,0,0,0,0,0,
0,0,0,0,0,0,0,0,0,0,0,0,0,0,0,0,0,0,0,0,0,0,0,0,0,0,0,0,0,0,0,0,0,0,0,0,0,0,0,0,0,0,0,0,0,0,0,0,0,0,0,0,0,0,0,0,0,0,0,0
</data>
 </layer>
</map>
